src/assets/img/talk.svg

<?xml version="1.0" encoding="UTF-8"?>
<!DOCTYPE svg PUBLIC "-//W3C//DTD SVG 1.1//EN" "http://www.w3.org/Graphics/SVG/1.1/DTD/svg11.dtd">
<!-- Creator: CorelDRAW 2019 (64-Bit) -->
<svg xmlns="http://www.w3.org/2000/svg" xml:space="preserve" width="7.3801mm" height="7.3799mm" version="1.1" style="shape-rendering:geometricPrecision; text-rendering:geometricPrecision; image-rendering:optimizeQuality; fill-rule:evenodd; clip-rule:evenodd"
viewBox="0 0 46.47 46.47"
 xmlns:xlink="http://www.w3.org/1999/xlink">
 <defs>
  <style type="text/css">
   <![CDATA[
    .fil0 {fill:black;fill-rule:nonzero}
   ]]>
  </style>
 </defs>
 <g id="Layer_x0020_1">
  <metadata id="CorelCorpID_0Corel-Layer"/>
  <path class="fil0" d="M39.66 6.81c4.54,4.54 6.81,10.48 6.81,16.43 0,5.95 -2.27,11.89 -6.81,16.43 -3.12,3.12 -6.91,5.17 -10.91,6.14 -4.11,1 -8.43,0.87 -12.48,-0.4l-14.64 0c-0.32,0 -0.58,-0.26 -0.58,-0.58l0 -14.64c-1.27,-4.04 -1.4,-8.37 -0.4,-12.47 0.97,-4 3.02,-7.79 6.14,-10.91 4.54,-4.54 10.48,-6.81 16.43,-6.81 5.95,0 11.89,2.27 16.43,6.81zm-0.82 0.82c-4.31,-4.31 -9.96,-6.47 -15.61,-6.47 -5.65,0 -11.3,2.16 -15.61,6.47 -2.97,2.97 -4.92,6.57 -5.84,10.37 -0.96,3.92 -0.82,8.06 0.4,11.93 0.02,0.06 0.03,0.12 0.03,0.19l0 14.15 14.15 0c0.06,0 0.12,0.01 0.17,0.03 3.87,1.23 8.02,1.36 11.94,0.41 3.8,-0.92 7.4,-2.87 10.36,-5.84 4.31,-4.31 6.47,-9.96 6.47,-15.61 0,-5.65 -2.16,-11.3 -6.47,-15.61z"/>
 </g>
</svg>

<?xml version="1.0" encoding="UTF-8" standalone="no"?>
<!-- Creator: CorelDRAW 2019 (64-Bit) -->

<svg
   xmlns:dc="http://purl.org/dc/elements/1.1/"
   xmlns:cc="http://creativecommons.org/ns#"
   xmlns:rdf="http://www.w3.org/1999/02/22-rdf-syntax-ns#"
   xmlns:svg="http://www.w3.org/2000/svg"
   xmlns="http://www.w3.org/2000/svg"
   xmlns:sodipodi="http://sodipodi.sourceforge.net/DTD/sodipodi-0.dtd"
   xmlns:inkscape="http://www.inkscape.org/namespaces/inkscape"
   xml:space="preserve"
   width="85"
   height="85"
   version="1.1"
   style="clip-rule:evenodd;fill-rule:evenodd;image-rendering:optimizeQuality;shape-rendering:geometricPrecision;text-rendering:geometricPrecision"
   viewBox="0 0 141.60933 141.61315"
   id="svg10"
   sodipodi:docname="talk.svg"
   inkscape:version="0.92.3 (2405546, 2018-03-11)"><metadata
   id="metadata14"><rdf:RDF><cc:Work
       rdf:about=""><dc:format>image/svg+xml</dc:format><dc:type
         rdf:resource="http://purl.org/dc/dcmitype/StillImage" /><dc:title></dc:title></cc:Work></rdf:RDF></metadata><sodipodi:namedview
   pagecolor="#ffffff"
   bordercolor="#666666"
   borderopacity="1"
   objecttolerance="10"
   gridtolerance="10"
   guidetolerance="10"
   inkscape:pageopacity="0"
   inkscape:pageshadow="2"
   inkscape:window-width="1920"
   inkscape:window-height="1015"
   id="namedview12"
   showgrid="false"
   units="px"
   inkscape:zoom="2.9914312"
   inkscape:cx="-13.061905"
   inkscape:cy="66.322251"
   inkscape:window-x="1920"
   inkscape:window-y="0"
   inkscape:window-maximized="1"
   inkscape:current-layer="svg10" />
 <defs
   id="defs4">
  <style
   type="text/css"
   id="style2">
   <![CDATA[
    .fil0 {fill:black;fill-rule:nonzero}
   ]]>
  </style>
 </defs>
 <g
   id="Layer_x0020_1"
   style="fill:#12d9e1;fill-opacity:1"
   transform="matrix(2.150981,0,0,2.150981,20.840445,20.825463)">
  <metadata
   id="CorelCorpID_0Corel-Layer" />
  <path
   class="fil0"
   d="m 39.66,6.81 c 4.54,4.54 6.81,10.48 6.81,16.43 0,5.95 -2.27,11.89 -6.81,16.43 -3.12,3.12 -6.91,5.17 -10.91,6.14 -4.11,1 -8.43,0.87 -12.48,-0.4 H 1.63 c -0.32,0 -0.58,-0.26 -0.58,-0.58 V 30.19 C -0.22,26.15 -0.35,21.82 0.65,17.72 1.62,13.72 3.67,9.93 6.79,6.81 11.33,2.27 17.27,0 23.22,0 29.17,0 35.11,2.27 39.65,6.81 Z M 38.84,7.63 C 34.53,3.32 28.88,1.16 23.23,1.16 17.58,1.16 11.93,3.32 7.62,7.63 4.65,10.6 2.7,14.2 1.78,18 c -0.96,3.92 -0.82,8.06 0.4,11.93 0.02,0.06 0.03,0.12 0.03,0.19 v 14.15 h 14.15 c 0.06,0 0.12,0.01 0.17,0.03 3.87,1.23 8.02,1.36 11.94,0.41 3.8,-0.92 7.4,-2.87 10.36,-5.84 4.31,-4.31 6.47,-9.96 6.47,-15.61 0,-5.65 -2.16,-11.3 -6.47,-15.61 z"
   id="path7"
   style="fill:#12d9e1;fill-opacity:1;fill-rule:nonzero"
   inkscape:connector-curvature="0" />
 </g>
</svg>
